!!!OTL: NIX IN DER GRUBE
!!!ARE: Europa, Mitteleuropa, Deutschland, Sachsen, Schlesien
!!!SCT: E1891
!!!YEM: Copyright 1995, estate of Helmut Schaffrath.
**kern
*ICvox
*Ivox
*M2/4
*k[]
*C:
=1
{4G
8G
8A
=2
4G
8E}
{8E
=3
8G
8G
8G
8A
=4
4G
8E
8r}
=5
{8G
8G
8G
8A
=6
4G
8E}
{8E
=7
8G
8G
8G
8A
=8
4G
8D
8r}
=9
{4G
4G
=10
2c}
==
!!!AGN: Kinder - Lied, Spiel
!!!ONB: ESAC (Essen Associative Code) Database: ERK3
!!!AMT: simple duple
!!!AIN: vox
!!!EED: Helmut Schaffrath
!!!EEV: 1.0
*-
